X:153 
T:Miss Ramsey (reel)  
B:CRE3.095 (InÃÂÃÂÃÂÃÂ­on Ramsey)
F:file ID: cre.3/153miss_r
R:reel
Q:180
M:C
L:1/8
K:D
D2DB AGFG|AFAd AGFE|D2DF ADFA|1 (3Bcd AF EA,CE:|2 (3Bcd AF Daga||
"5"fddf edce|dcdA Bcde|fddf edce|dABG EADg|
"9"fddf edce|dcdA Bcde|faec dAFA|1 d2AF EA,CE:|2 BdAF Egfe||
"13"|:dcdf adfg|afba gfec|dcdf adfa|1 gbaf edef:|2 gbaf ea (3gfe||
"17"fdd2 ecc2|dcdA Bcde|fdd2 ecce|dABG EADg|
"21"fdd2 edce|dcdA Bcde|faec dBAF|GBAF EA,CE |HD8||

%%%

